X:83
T:Mason's Apron
C:Traditional
L:1/8
M:C
Q:1/4=120
K:A
((3uefg) |: "A" vaA (3AAA (AB)AF | "(E)" EFA(B "A" cA)Bc | "D" dB (3BBB (Bc)BA | "E" ^GAB(c "E7" de)fg |
"A" aA (3AAA (AB)AF | "(E)" EFA(B "A" cA)Bc | "Bm" dcde "D" f(gaf) |1 "E" edcB "A" A2 (3efg :|
|2 "E" edcB  "A" A2 (uAB) ||: "A" c2 [ec]c [fc]c[ec]c | (3ccc (u[ec]c) [fc]c[ec](uc | "D" d2) [fd]d [^gd]d[fd]d | (3ddd ([fd]d) "E" ^gfed( |
"A" c2) [ec]c  [fc]c[ec]c | (3ccc ([ec]c) [fc]c[ec]c | "Bm" dcde "D" f(gaf) |1 "E" edcB "A" A2 (uAB) :|2 "E" edcB "A" A2 |]


